dataset/sunshine/icon.svg

<?xml version="1.0" encoding="UTF-8" standalone="no"?>
<svg
   width="128"
   height="128"
   viewBox="0 0 128 128"
   version="1.1"
   id="svg29"
   xml:space="preserve"
   xmlns:xlink="http://www.w3.org/1999/xlink"
   xmlns="http://www.w3.org/2000/svg"
   xmlns:svg="http://www.w3.org/2000/svg"><defs
     id="defs15"><linearGradient
       id="linearGradient19"><stop
         style="stop-color:#a3380a;stop-opacity:1;"
         offset="0"
         id="stop20" /><stop
         style="stop-color:#f6946a;stop-opacity:1;"
         offset="0.20999999"
         id="stop22" /><stop
         style="stop-color:#a3380a;stop-opacity:1;"
         offset="0.56"
         id="stop23" /><stop
         style="stop-color:#a3380a;stop-opacity:1;"
         offset="0.73588246"
         id="stop24" /><stop
         style="stop-color:#f48452;stop-opacity:1;"
         offset="0.91000003"
         id="stop21" /></linearGradient><linearGradient
       id="linearGradient16"><stop
         style="stop-color:#a1200c;stop-opacity:1;"
         offset="0.25"
         id="stop17" /><stop
         style="stop-color:#f47f6c;stop-opacity:1;"
         offset="0.5"
         id="stop19" /><stop
         style="stop-color:#a1200c;stop-opacity:1;"
         offset="0.79867733"
         id="stop18" /></linearGradient><linearGradient
       id="linearGradient13"><stop
         style="stop-color:#9d8101;stop-opacity:1;"
         offset="0.15350382"
         id="stop14" /><stop
         style="stop-color:#fee886;stop-opacity:1;"
         offset="0.30149564"
         id="stop16" /><stop
         style="stop-color:#9d8101;stop-opacity:1;"
         offset="0.4536362"
         id="stop15" /></linearGradient><linearGradient
       id="linearGradient9"><stop
         style="stop-color:#a86305;stop-opacity:1;"
         offset="0"
         id="stop9" /><stop
         style="stop-color:#fcc67d;stop-opacity:1;"
         offset="0.14489172"
         id="stop11" /><stop
         style="stop-color:#a86305;stop-opacity:1;"
         offset="0.28035864"
         id="stop12" /><stop
         style="stop-color:#a86305;stop-opacity:1;"
         offset="0.64017934"
         id="stop13" /><stop
         style="stop-color:#fbbd65;stop-opacity:1;"
         offset="0.91013002"
         id="stop10" /></linearGradient><linearGradient
       xlink:href="#linearGradient9"
       id="linearGradient10"
       x1="7.2217341"
       y1="65.291461"
       x2="107.33007"
       y2="65.291461"
       gradientUnits="userSpaceOnUse" /><linearGradient
       xlink:href="#linearGradient13"
       id="linearGradient15"
       x1="11.223381"
       y1="57.97909"
       x2="105.18975"
       y2="57.97909"
       gradientUnits="userSpaceOnUse" /><linearGradient
       xlink:href="#linearGradient16"
       id="linearGradient18"
       x1="22.68662"
       y1="64.227887"
       x2="118.69361"
       y2="64.227887"
       gradientUnits="userSpaceOnUse" /><linearGradient
       xlink:href="#linearGradient19"
       id="linearGradient21"
       x1="35.473414"
       y1="67.342313"
       x2="120.77827"
       y2="67.342313"
       gradientUnits="userSpaceOnUse" /></defs><text
     style="font-style:normal;font-weight:400;font-size:13.8828px;font-family:Arial;fill:#ffffff;fill-opacity:1;fill-rule:evenodd;stroke:none;stroke-width:0.991632;stroke-linecap:square;stroke-linejoin:bevel;stroke-opacity:1"
     id="text1476"
     font-style="normal"
     font-weight="400"
     font-size="14"
     y="-67.545097"
     x="-183.452"
     xml:space="preserve"
     transform="scale(1.008439,0.99163165)" /><path
     class="st2"
     d="m 37.231679,22.975219 c 0,0 18.561683,-13.6930452 37.427651,-13.6930452 18.865968,0 30.67242,13.7539032 33.35017,25.4386342 2.67775,11.684732 2.92118,26.351507 -5.59893,42.66144 -8.520119,16.309936 -18.196534,27.264382 -38.523097,37.062512 -16.661593,8.03148 -31.404374,1.09839 -41.200853,-2.66113 v 4 c 0,0 12.647249,12.59761 34.592153,8.03326 21.944905,-4.56435 40.040012,-19.90056 47.910977,-33.837038 7.87097,-13.936479 14.01762,-27.933809 13.4699,-44.913187 C 118.11193,28.087289 107.09663,18.532586 103.44515,15.733119 99.793675,12.933652 92.155998,3.060858 75.115765,3.6694378 59.915209,4.2123148 42.082598,13.414766 37.231679,18.975219 Z"
     id="path9"
     style="fill:url(#linearGradient18);fill-opacity:1;stroke-width:0.486864" /><path
     class="st3"
     d="m 115.76889,28.756727 c 4.7165,9.676418 10.61972,34.080469 -5.93365,59.884247 -16.553369,25.803776 -36.332212,32.802456 -45.582624,34.871626 -9.250413,2.06917 -20.658192,2.07849 -28.779202,-0.59884 v -4 c 6.010587,-2.70786 20.223428,4.85446 32.472173,-1.28608 C 83.322364,109.919 93.139872,103.63233 104.05373,85.780649 114.96759,67.928974 116.67162,50.361309 114.84588,40.056026 113.02014,29.750743 110.36811,18.209885 98.521094,11.434364 86.674076,4.6588446 111.0524,19.080308 115.76889,28.756727 Z"
     id="path8"
     style="fill:url(#linearGradient21);fill-opacity:1;stroke-width:0.486864" /><path
     class="st1"
     d="m 59.505698,13.765378 c 0,0 -20.022274,1.785167 -40.531408,29.718979 -20.50914,27.933814 -13.69305,67.734933 16.675081,72.725283 30.368131,4.99035 56.41534,-21.848014 64.996319,-40.105405 8.58098,-18.257393 7.4127,-34.389237 4.65655,-38.218348 0,0 0.41495,18.033788 -6.401143,29.353371 C 92.085004,78.558842 84.416899,89.797278 67.214379,97.505963 50.011859,105.21464 31.10531,104.20034 20.75945,88.133832 10.4136,72.067326 17.87885,51.091608 20.61746,46.588118 c 2.7386,-4.50349 16.309929,-26.452939 38.888238,-32.82274 z"
     id="path5"
     style="fill:url(#linearGradient10);fill-opacity:1;stroke-width:0.486864" /><path
     class="st0"
     d="m 59.505698,13.765378 c 0,0 -31.078143,12.658459 -36.190218,40.815416 -5.11207,28.156951 18.095111,44.548037 42.032579,36.677066 23.937468,-7.870965 34.242759,-24.830053 39.841691,-42.357144 0,0 -4.54406,48.929805 -46.820071,56.232764 C 16.09367,112.43644 0.83861,80.79029 18.36571,46.790971 23.20959,36.376617 48.546202,11.039413 59.505698,9.7653779 Z"
     id="path6"
     style="fill:url(#linearGradient15);fill-opacity:1;stroke-width:0.486864" /><path
     class="st0"
     d="m 59.505698,9.7653779 c 0,0 -31.078143,12.6584591 -36.190218,40.8154161 -5.11207,28.156951 18.095111,44.548037 42.032579,36.677066 23.937468,-7.870965 34.242759,-24.830053 39.841691,-42.357144 0,0 -4.54406,48.929805 -46.820071,56.232764 C 16.09367,108.43644 0.83861,76.79029 18.36571,42.790971 23.23434,32.323401 40.883157,14.10658 59.505698,9.7653779 Z"
     id="path1"
     style="fill:#fdd107;stroke-width:0.486864" /><path
     class="st1"
     d="m 59.505698,9.7653779 c 0,0 -20.022274,1.7851671 -40.531408,29.7189791 -20.50914,27.933814 -13.69305,67.734933 16.675081,72.725283 30.368131,4.99035 56.41534,-21.848014 64.996319,-40.105405 8.58098,-18.257393 7.3841,-29.921838 4.74692,-37.914518 0,0 0.32458,17.729958 -6.491513,29.049541 C 92.085004,74.558842 84.416899,85.797278 67.214379,93.505963 50.011859,101.21464 31.10531,100.20034 20.75945,84.133832 10.4136,68.067326 17.87885,47.091608 20.61746,42.588118 23.35606,38.084628 36.927389,16.135179 59.505698,9.7653779 Z"
     id="path2"
     style="fill:#f89a1c;stroke-width:0.486864" /><path
     class="st2"
     d="m 37.231679,18.975219 c 0,0 18.561683,-13.6930452 37.427651,-13.6930452 18.865968,0 30.67242,13.7539032 33.35017,25.4386342 2.67775,11.684732 2.92118,26.351507 -5.59893,42.66144 -8.520119,16.309936 -18.196538,27.264372 -38.523097,37.062512 -20.32656,9.79813 -41.200853,1.33887 -41.200853,1.33887 0,0 12.647249,12.59761 34.592153,8.03326 21.944905,-4.56435 40.040012,-19.900561 47.910977,-33.837038 7.87097,-13.936479 14.01762,-27.933809 13.4699,-44.913187 C 118.11193,24.087289 107.09663,14.532586 103.44515,11.733119 99.793675,8.9336524 92.155998,3.0608581 75.115765,3.6694378 58.075531,4.2780176 43.773911,14.197867 37.231679,18.975219 Z"
     id="path3"
     style="fill:#ef3e23;stroke-width:0.486864" /><path
     class="st3"
     d="m 37.231679,18.975219 c 0,0 17.040233,-15.9752194 40.135831,-15.9752194 23.0956,0 33.68489,12.0803084 38.40138,21.7567274 4.7165,9.676418 10.61972,34.080469 -5.93365,59.884247 -16.553369,25.803776 -36.332212,32.802456 -45.582624,34.871626 -9.250413,2.06917 -20.658192,2.07849 -28.779202,-0.59884 0,0 17.135045,4.08803 32.511826,-3.62065 15.376781,-7.70867 25.154632,-15.660784 36.06849,-33.512461 10.91386,-17.851675 12.61789,-35.41934 10.79215,-45.724623 C 113.02014,25.750743 108.92237,15.404883 97.075353,8.6293625 85.228335,1.8538423 69.455973,3.5020779 60.814145,6.4232603 52.172317,9.3444433 46.466877,12.539488 37.231679,18.975219 Z"
     id="path4-0"
     style="fill:#f26222;stroke-width:0.486864" /></svg>

<svg xmlns="http://www.w3.org/2000/svg" xmlns:xlink="http://www.w3.org/1999/xlink" xml:space="preserve" width="128" height="128" viewBox="0 0 128 128"><defs><linearGradient id="d"><stop offset="0" style="stop-color:#a3380a;stop-opacity:1"/><stop offset=".21" style="stop-color:#f6946a;stop-opacity:1"/><stop offset=".56" style="stop-color:#a3380a;stop-opacity:1"/><stop offset=".736" style="stop-color:#a3380a;stop-opacity:1"/><stop offset=".91" style="stop-color:#f48452;stop-opacity:1"/></linearGradient><linearGradient id="c"><stop offset=".25" style="stop-color:#a1200c;stop-opacity:1"/><stop offset=".5" style="stop-color:#f47f6c;stop-opacity:1"/><stop offset=".799" style="stop-color:#a1200c;stop-opacity:1"/></linearGradient><linearGradient id="b"><stop offset=".154" style="stop-color:#9d8101;stop-opacity:1"/><stop offset=".301" style="stop-color:#fee886;stop-opacity:1"/><stop offset=".454" style="stop-color:#9d8101;stop-opacity:1"/></linearGradient><linearGradient id="a"><stop offset="0" style="stop-color:#a86305;stop-opacity:1"/><stop offset=".145" style="stop-color:#fcc67d;stop-opacity:1"/><stop offset=".28" style="stop-color:#a86305;stop-opacity:1"/><stop offset=".64" style="stop-color:#a86305;stop-opacity:1"/><stop offset=".91" style="stop-color:#fbbd65;stop-opacity:1"/></linearGradient><linearGradient xlink:href="#a" id="g" x1="7.222" x2="107.33" y1="65.291" y2="65.291" gradientUnits="userSpaceOnUse"/><linearGradient xlink:href="#b" id="h" x1="11.223" x2="105.19" y1="57.979" y2="57.979" gradientUnits="userSpaceOnUse"/><linearGradient xlink:href="#c" id="e" x1="22.687" x2="118.694" y1="64.228" y2="64.228" gradientUnits="userSpaceOnUse"/><linearGradient xlink:href="#d" id="f" x1="35.473" x2="120.778" y1="67.342" y2="67.342" gradientUnits="userSpaceOnUse"/></defs><path d="M37.232 22.975S55.793 9.282 74.659 9.282s30.673 13.754 33.35 25.439 2.922 26.351-5.598 42.661-18.197 27.265-38.524 37.063c-16.661 8.031-31.404 1.098-41.2-2.661v4s12.647 12.597 34.592 8.033 40.04-19.9 47.91-33.837c7.872-13.937 14.018-27.934 13.47-44.913-.547-16.98-11.562-26.534-15.214-29.334-3.651-2.8-11.289-12.672-28.33-12.064-15.2.543-33.032 9.746-37.883 15.306Z" class="st2" style="fill:url(#e);fill-opacity:1;stroke-width:.486864"/><path d="M115.769 28.757c4.716 9.676 10.62 34.08-5.934 59.884s-36.332 32.802-45.582 34.872c-9.25 2.069-20.659 2.078-28.78-.6v-4c6.011-2.707 20.224 4.855 32.473-1.285 15.376-7.709 25.194-13.996 36.108-31.847 10.914-17.852 12.618-35.42 10.792-45.725S110.368 18.21 98.52 11.434s12.531 7.646 17.248 17.323" class="st3" style="fill:url(#f);fill-opacity:1;stroke-width:.486864"/><path d="M59.506 13.765s-20.023 1.786-40.532 29.72S5.281 111.218 35.65 116.21s56.416-21.848 64.997-40.106c8.58-18.257 7.412-34.389 4.656-38.218 0 0 .415 18.034-6.4 29.353-6.817 11.32-14.485 22.558-31.688 30.267S31.105 104.2 20.76 88.134c-10.345-16.067-2.88-37.042-.142-41.546 2.74-4.503 16.31-26.453 38.889-32.823" class="st1" style="fill:url(#g);fill-opacity:1;stroke-width:.486864"/><path d="M59.506 13.765s-31.078 12.659-36.19 40.816C18.202 82.738 41.41 99.129 65.347 91.258c23.938-7.871 34.243-24.83 39.842-42.357 0 0-4.544 48.93-46.82 56.232C16.094 112.436.839 80.79 18.366 46.791c4.844-10.414 30.18-35.752 41.14-37.026Z" class="st0" style="fill:url(#h);fill-opacity:1;stroke-width:.486864"/><path d="M59.506 9.765s-31.078 12.659-36.19 40.816C18.202 78.738 41.41 95.129 65.347 87.258c23.938-7.871 34.243-24.83 39.842-42.357 0 0-4.544 48.93-46.82 56.232C16.094 108.436.839 76.79 18.366 42.791c4.868-10.468 22.517-28.684 41.14-33.026" class="st0" style="fill:#fdd107;stroke-width:.486864"/><path d="M59.506 9.765s-20.023 1.786-40.532 29.72S5.281 107.218 35.65 112.21s56.416-21.848 64.997-40.106c8.58-18.257 7.384-29.922 4.747-37.914 0 0 .324 17.73-6.492 29.05S84.417 85.796 67.214 93.505c-17.202 7.709-36.109 6.694-46.455-9.372-10.345-16.067-2.88-37.042-.142-41.546 2.74-4.503 16.31-26.453 38.889-32.823" class="st1" style="fill:#f89a1c;stroke-width:.486864"/><path d="M37.232 18.975S55.793 5.282 74.659 5.282s30.673 13.754 33.35 25.439 2.922 26.351-5.598 42.661-18.197 27.265-38.524 37.063c-20.326 9.798-41.2 1.339-41.2 1.339s12.647 12.597 34.592 8.033 40.04-19.9 47.91-33.837c7.872-13.937 14.018-27.934 13.47-44.913-.547-16.98-11.562-26.534-15.214-29.334-3.651-2.8-11.289-8.672-28.33-8.064S43.775 14.198 37.233 18.975" class="st2" style="fill:#ef3e23;stroke-width:.486864"/><path d="M37.232 18.975S54.272 3 77.368 3c23.095 0 33.684 12.08 38.4 21.757 4.717 9.676 10.62 34.08-5.933 59.884s-36.332 32.802-45.582 34.872c-9.25 2.069-20.659 2.078-28.78-.6 0 0 17.135 4.089 32.512-3.62s25.155-15.66 36.069-33.512 12.618-35.42 10.792-45.725-5.924-20.651-17.77-27.427c-11.848-6.775-27.62-5.127-36.262-2.206S46.467 12.54 37.232 18.975" class="st3" style="fill:#f26222;stroke-width:.486864"/></svg>
